src/assets/bold/lm-files-dashed-bold.svg

<svg width="24" height="24" viewBox="0 0 24 24" fill="none" xmlns="http://www.w3.org/2000/svg" fill="currentColor">
<path d="M3.40527 17.8457C3.81926 17.846 4.15527 18.1817 4.15527 18.5957V21.1787H5.40527L5.48242 21.1826C5.86005 21.2215 6.15511 21.5409 6.15527 21.9287C6.15503 22.3165 5.86001 22.636 5.48242 22.6748L5.40527 22.6787H4.07227C3.69677 22.6787 3.33594 22.529 3.07031 22.2637C2.80493 21.9982 2.65451 21.638 2.6543 21.2627V18.5957C2.6543 18.1815 2.99106 17.8457 3.40527 17.8457Z" fill="black"/>
<path d="M12.0713 21.1787C12.4854 21.1788 12.8213 21.5145 12.8213 21.9287C12.8212 22.3428 12.4854 22.6786 12.0713 22.6787H8.73828C8.32413 22.6787 7.98838 22.3428 7.98828 21.9287C7.98828 21.5145 8.32407 21.1787 8.73828 21.1787H12.0713Z" fill="black"/>
<path d="M16 13.25C16.4142 13.25 16.75 13.5858 16.75 14C16.75 14.4142 16.4142 14.75 16 14.75H12C11.5858 14.75 11.25 14.4142 11.25 14C11.25 13.5858 11.5858 13.25 12 13.25H16Z" fill="black"/>
<path d="M16 10.25C16.4142 10.25 16.75 10.5858 16.75 11C16.75 11.4142 16.4142 11.75 16 11.75H12C11.5858 11.75 11.25 11.4142 11.25 11C11.25 10.5858 11.5858 10.25 12 10.25H16Z" fill="black"/>
<path fill-rule="evenodd" clip-rule="evenodd" d="M16.0049 1.3252C16.0273 1.32747 16.0495 1.33076 16.0713 1.33496L16.0752 1.33594C16.0798 1.33687 16.0852 1.33883 16.0898 1.33984C16.1299 1.34867 16.169 1.36079 16.207 1.37598C16.2183 1.38049 16.2292 1.38558 16.2402 1.39062C16.2689 1.40371 16.2964 1.41891 16.3232 1.43555C16.3353 1.44306 16.3478 1.44985 16.3594 1.45801C16.3946 1.48271 16.4281 1.5102 16.459 1.54102L21.125 6.20801C21.1285 6.21153 21.1313 6.21614 21.1348 6.21973C21.1587 6.24463 21.1798 6.27178 21.2002 6.2998C21.207 6.3092 21.2153 6.31747 21.2217 6.32715C21.2403 6.35548 21.2548 6.38616 21.2695 6.41699C21.2757 6.42988 21.2837 6.44187 21.2891 6.45508C21.3249 6.54255 21.3457 6.63794 21.3457 6.73828L21.3447 17.4043C21.3447 17.78 21.1954 18.1406 20.9297 18.4062C20.6641 18.6717 20.3042 18.8212 19.9287 18.8213H17.4883V21.2617C17.4883 21.6373 17.3387 21.998 17.0732 22.2637C16.8078 22.529 16.4476 22.6785 16.0723 22.6787H15.4053C14.9911 22.6787 14.6554 22.3428 14.6553 21.9287C14.6553 21.5145 14.9911 21.1787 15.4053 21.1787H15.9883V18.8213H7.92871C7.55308 18.8212 7.19238 18.6719 6.92676 18.4062C6.66121 18.1406 6.51172 17.7799 6.51172 17.4043V6.53418C6.40741 6.61007 6.28362 6.66102 6.14844 6.6748L6.07227 6.67871H4.15527V8.5957C4.15501 9.00953 3.8191 9.34544 3.40527 9.3457C2.99122 9.3457 2.65456 9.00969 2.6543 8.5957V6.5957C2.6543 6.21998 2.80464 5.85943 3.07031 5.59375C3.33597 5.32818 3.69662 5.17871 4.07227 5.17871H6.07227L6.14844 5.18262C6.28347 5.19639 6.40749 5.24651 6.51172 5.32227V2.73828C6.51176 2.36263 6.66115 2.00196 6.92676 1.73633C7.19238 1.47071 7.55307 1.32135 7.92871 1.32129H15.9287L16.0049 1.3252ZM8.01172 17.3213H19.8447V7.48828H15.9287C15.5146 7.48828 15.1789 7.15235 15.1787 6.73828V2.82129H8.01172V17.3213ZM16.6787 5.98828H18.7852L16.6787 3.88184V5.98828Z" fill="black"/>
<path d="M3.40527 11.1787C3.81926 11.179 4.15527 11.5147 4.15527 11.9287V15.2617C4.15519 15.6757 3.81921 16.0115 3.40527 16.0117C2.99111 16.0117 2.65438 15.6759 2.6543 15.2617V11.9287C2.6543 11.5145 2.99106 11.1787 3.40527 11.1787Z" fill="black"/>
</svg>

<svg xmlns="http://www.w3.org/2000/svg" width="24" height="24" fill="currentColor" viewBox="0 0 24 24">
  <path d="M3.405 17.846a.75.75 0 0 1 .75.75v2.583h1.25l.077.004a.751.751 0 0 1 0 1.492l-.077.004H4.072a1.42 1.42 0 0 1-1.418-1.416v-2.667a.75.75 0 0 1 .751-.75Zm8.666 3.333a.75.75 0 0 1 0 1.5H8.738a.75.75 0 0 1 0-1.5h3.333ZM16 13.25a.75.75 0 0 1 0 1.5h-4a.75.75 0 0 1 0-1.5h4Zm0-3a.75.75 0 0 1 0 1.5h-4a.75.75 0 0 1 0-1.5h4Z"/>
  <path fill-rule="evenodd" d="M16.005 1.325a.752.752 0 0 1 .066.01h.004l.015.005a.75.75 0 0 1 .117.036l.033.015a.738.738 0 0 1 .083.045c.012.007.025.014.036.022a.753.753 0 0 1 .1.083l4.666 4.667.01.012a.761.761 0 0 1 .065.08l.022.027a.77.77 0 0 1 .047.09c.007.013.015.025.02.038a.746.746 0 0 1 .057.283l-.001 10.666a1.417 1.417 0 0 1-1.416 1.417h-2.44v2.44a1.418 1.418 0 0 1-1.417 1.418h-.667a.75.75 0 0 1 0-1.5h.583V18.82h-8.06a1.418 1.418 0 0 1-1.416-1.417V6.534a.745.745 0 0 1-.364.14l-.076.005H4.155v1.917a.75.75 0 0 1-1.5 0v-2a1.418 1.418 0 0 1 1.417-1.417h2l.076.004c.135.013.26.064.364.14V2.737A1.418 1.418 0 0 1 7.929 1.32h8l.076.004ZM8.012 17.321h11.833V7.488h-3.916a.75.75 0 0 1-.75-.75V2.821H8.012v14.5Zm8.667-11.333h2.106L16.68 3.882v2.106Z" clip-rule="evenodd"/>
  <path d="M3.405 11.179a.75.75 0 0 1 .75.75v3.333a.75.75 0 0 1-1.5 0v-3.333a.75.75 0 0 1 .75-.75Z"/>
</svg>
